teeny/solid/search-circle.svg

<svg width="15" height="15" viewBox="0 0 15 15" fill="none" xmlns="http://www.w3.org/2000/svg">
<path fill-rule="evenodd" clip-rule="evenodd" d="M0 7.5C0 3.35786 3.35786 0 7.5 0C11.6421 0 15 3.35786 15 7.5C15 11.6421 11.6421 15 7.5 15C3.35786 15 0 11.6421 0 7.5ZM7 4C5.34315 4 4 5.34315 4 7C4 8.65685 5.34315 10 7 10C7.64791 10 8.24786 9.79461 8.73827 9.44537L10.1465 10.8536L10.8536 10.1465L9.44537 8.73827C9.79461 8.24786 10 7.64791 10 7C10 5.34315 8.65685 4 7 4Z" fill="black"/>
</svg>

<svg viewBox="0 0 15 15" xmlns="http://www.w3.org/2000/svg"><path fill-rule="evenodd" d="M0 7.5C0 3.35 3.35 0 7.5 0 11.64 0 15 3.35 15 7.5c0 4.14-3.36 7.5-7.5 7.5C3.35 15 0 11.64 0 7.5ZM7 4C5.34 4 4 5.34 4 7c0 1.65 1.34 3 3 3 .64 0 1.24-.21 1.73-.56l1.4 1.4 .7-.71 -1.41-1.41c.34-.5.55-1.1.55-1.74 0-1.66-1.35-3-3-3Z"/></svg>
